app/assets/images/heroicon/mini/chevron-double-down.svg

<svg width="20" height="20" viewBox="0 0 20 20" fill="none" xmlns="http://www.w3.org/2000/svg">
<path fill-rule="evenodd" clip-rule="evenodd" d="M16.7698 3.20938C17.0684 3.49647 17.0777 3.97125 16.7906 4.26983L10.5406 10.7698C10.3992 10.9169 10.204 11 10 11C9.79599 11 9.60078 10.9169 9.45937 10.7698L3.20937 4.26983C2.92228 3.97125 2.93159 3.49647 3.23017 3.20938C3.52875 2.92228 4.00353 2.93159 4.29062 3.23017L10 9.16792L15.7094 3.23017C15.9965 2.93159 16.4713 2.92228 16.7698 3.20938ZM16.7698 9.20938C17.0684 9.49647 17.0777 9.97125 16.7906 10.2698L10.5406 16.7698C10.3992 16.9169 10.204 17 10 17C9.79599 17 9.60078 16.9169 9.45937 16.7698L3.20937 10.2698C2.92228 9.97125 2.93159 9.49647 3.23017 9.20938C3.52875 8.92228 4.00353 8.93159 4.29062 9.23017L10 15.1679L15.7094 9.23017C15.9965 8.93159 16.4713 8.92228 16.7698 9.20938Z" fill="#0F172A"/>
</svg>

<svg xmlns="http://www.w3.org/2000/svg" viewBox="0 0 20 20" fill="currentColor" aria-hidden="true">
  <path fill-rule="evenodd" d="M16.77 3.21a.75.75 0 01.02 1.06l-6.25 6.5a.75.75 0 01-1.08 0l-6.25-6.5a.75.75 0 011.08-1.04L10 9.168l5.71-5.938a.75.75 0 011.06-.02zm0 6a.75.75 0 01.02 1.06l-6.25 6.5a.75.75 0 01-1.08 0l-6.25-6.5a.75.75 0 111.08-1.04L10 15.168l5.71-5.938a.75.75 0 011.06-.02z" clip-rule="evenodd"/>
</svg>
